X: 3700
T: Billy Rush's
R: jig
M: 6/8
K: Dmajor
E>FE ECE|F>AA({Bc}) BAB|cec d/f/dB|
c>BA({Bc}) BAF|E>FE ECE|F>AA ({Bc}) BAB|
c>ec BAB|1 cAA A3:|2 c>AA A2B||
c>ee e>cA|d>cB cBA|B>cB ({Bc}) BAB|
c>ec dcB|c>ee ecA|d>cA cAF|
E>FE ECE|1 F>AA A2B:|2 F>AA ({Bc}) B>AF||

